src/icons/service-dockerhub.svg

<?xml version="1.0" encoding="utf-8"?>
<!-- Generator: Adobe Illustrator 20.1.0, SVG Export Plug-In . SVG Version: 6.00 Build 0)  -->
<svg version="1.1" id="Layer_1" xmlns="http://www.w3.org/2000/svg" xmlns:xlink="http://www.w3.org/1999/xlink" x="0px" y="0px"
	 viewBox="0 0 14 10" style="enable-background:new 0 0 14 10;" xml:space="preserve">
<title>HDL/Icon/Standard/Service/dockerhub</title>
<desc>Created with Sketch.</desc>
<g id="Colors">
	<g id="Service-icons" transform="translate(-121.000000, -692.000000)">
		<g id="Dockerhub" transform="translate(101.000000, 682.000000)">
			<g id="HDL_x2F_Icon_x2F_Standard_x2F_Service_x2F_dockerhub" transform="translate(20.000000, 10.000000)">
				<g id="DockerHub">
					<polygon id="Path" points="5.8,3.3 7.1,3.3 7.1,4.6 5.8,4.6 					"/>
					<polygon id="Path_1_" points="7.2,3.3 8.5,3.3 8.5,4.6 7.2,4.6 					"/>
					<polygon id="Path_2_" points="4.3,3.3 5.6,3.3 5.6,4.6 4.3,4.6 					"/>
					<polygon id="Path_3_" points="2.9,3.3 4.2,3.3 4.2,4.6 2.9,4.6 					"/>
					<polygon id="Path_4_" points="1.4,3.3 2.7,3.3 2.7,4.6 1.4,4.6 					"/>
					<polygon id="Path_5_" points="5.8,1.9 7.1,1.9 7.1,3.2 5.8,3.2 					"/>
					<polygon id="Path_6_" points="5.8,0.4 7.1,0.4 7.1,1.7 5.8,1.7 					"/>
					<polygon id="Path_7_" points="4.3,1.9 5.6,1.9 5.6,3.2 4.3,3.2 					"/>
					<polygon id="Path_8_" points="2.9,1.9 4.2,1.9 4.2,3.2 2.9,3.2 					"/>
					<path id="Shape" d="M0.8,7.7L0.8,7.7C0.7,7.5,0.6,7.4,0.5,7.3L0.4,7.1c0-0.1-0.1-0.2-0.1-0.4l0,0c0,0,0,0,0-0.1V6.5
						C0.1,6.1,0,5.7,0,5.2C0,5.1,0,5,0,4.9V4.8h9.5c0.7,0,1.4-0.2,1.7-0.5c-0.2-0.2-0.4-0.6-0.4-1c0-0.5,0.1-1,0.3-1.3l0.1-0.1
						L11.3,2c0.3,0.2,0.9,0.8,0.9,1.6c0.3-0.1,0.5-0.1,0.8-0.1c0.4,0,0.7,0.1,0.9,0.2H14v0.1c-0.3,0.6-1,0.9-1.8,0.9
						c-0.1,0-0.2,0-0.3,0c-1.2,3-3.7,4.6-7.3,4.6C4,9.3,3.4,9.2,2.8,9C2.1,8.8,1.5,8.4,1,7.9L0.8,7.7L0.8,7.7z M5.2,9.1
						C4.3,8.7,3.9,8.2,3.6,7.6C3.2,7.7,2.9,7.7,2.4,7.8c-0.2,0-0.3,0-0.5,0H1.2C2,8.6,3,9.1,4.8,9.1C4.9,9.1,5.1,9.1,5.2,9.1z
						 M4.2,6.7C4,6.7,3.9,6.9,3.9,7c0,0.2,0.2,0.3,0.3,0.3c0.2,0,0.3-0.2,0.3-0.3S4.4,6.7,4.2,6.7L4.2,6.7z"/>
					<path id="Path_9_" d="M4.2,6.8C4.2,6.8,4.3,6.8,4.2,6.8C4.3,6.8,4.3,6.9,4.2,6.8C4.3,7,4.3,7,4.4,7c0,0,0.1,0,0.1-0.1V7
						c0,0.1-0.1,0.3-0.3,0.3C4,7.3,4,7.2,4,7C4,6.9,4.1,6.8,4.2,6.8"/>
				</g>
			</g>
		</g>
	</g>
</g>
</svg>

<?xml version="1.0" encoding="UTF-8"?>
<svg width="14px" height="10px" viewBox="0 0 14 10" version="1.1" xmlns="http://www.w3.org/2000/svg" xmlns:xlink="http://www.w3.org/1999/xlink">
    <!-- Generator: Sketch 59 (86127) - https://sketch.com -->
    <title>HDL/Icon/Standard/Service/dockerhub</title>
    <desc>Created with Sketch.</desc>
    <g id="Colors" stroke="none" stroke-width="1" fill="none" fill-rule="evenodd">
        <g id="Service-icons" transform="translate(-121.000000, -692.000000)" fill="#000000">
            <g id="Dockerhub" transform="translate(101.000000, 682.000000)">
                <g id="HDL/Icon/Standard/Service/dockerhub" transform="translate(20.000000, 10.000000)">
                    <g id="DockerHub">
                        <polygon id="Path" fill-rule="nonzero" points="5.8 3.3 7.1 3.3 7.1 4.6 5.8 4.6"></polygon>
                        <polygon id="Path" fill-rule="nonzero" points="7.2 3.3 8.5 3.3 8.5 4.6 7.2 4.6"></polygon>
                        <polygon id="Path" fill-rule="nonzero" points="4.3 3.3 5.6 3.3 5.6 4.6 4.3 4.6"></polygon>
                        <polygon id="Path" fill-rule="nonzero" points="2.9 3.3 4.2 3.3 4.2 4.6 2.9 4.6"></polygon>
                        <polygon id="Path" fill-rule="nonzero" points="1.4 3.3 2.7 3.3 2.7 4.6 1.4 4.6"></polygon>
                        <polygon id="Path" fill-rule="nonzero" points="5.8 1.9 7.1 1.9 7.1 3.2 5.8 3.2"></polygon>
                        <polygon id="Path" fill-rule="nonzero" points="5.8 0.4 7.1 0.4 7.1 1.7 5.8 1.7"></polygon>
                        <polygon id="Path" fill-rule="nonzero" points="4.3 1.9 5.6 1.9 5.6 3.2 4.3 3.2"></polygon>
                        <polygon id="Path" fill-rule="nonzero" points="2.9 1.9 4.2 1.9 4.2 3.2 2.9 3.2"></polygon>
                        <path d="M0.8,7.7 L0.8,7.7 C0.7,7.5 0.6,7.4 0.5,7.3 L0.4,7.1 C0.4,7 0.3,6.9 0.3,6.7 L0.3,6.7 C0.3,6.7 0.3,6.7 0.3,6.6 C0.3,6.6 0.3,6.5 0.3,6.5 C0.1,6.1 0,5.7 0,5.2 C0,5.1 0,5 0,4.9 L0,4.8 L9.5,4.8 C10.2,4.8 10.9,4.6 11.2,4.3 C11,4.1 10.8,3.7 10.8,3.3 C10.8,2.8 10.9,2.3 11.1,2 L11.2,1.9 L11.3,2 C11.6,2.2 12.2,2.8 12.2,3.6 C12.5,3.5 12.7,3.5 13,3.5 C13.4,3.5 13.7,3.6 13.9,3.7 L14,3.7 L14,3.8 C13.7,4.4 13,4.7 12.2,4.7 C12.1,4.7 12,4.7 11.9,4.7 C10.7,7.7 8.2,9.3 4.6,9.3 C4,9.3 3.4,9.2 2.8,9 C2.1,8.8 1.5,8.4 1,7.9 L0.8,7.7 L0.8,7.7 Z M5.2,9.1 C4.3,8.7 3.9,8.2 3.6,7.6 C3.2,7.7 2.9,7.7 2.4,7.8 C2.2,7.8 2.1,7.8 1.9,7.8 L1.2,7.8 C2,8.6 3,9.1 4.8,9.1 C4.9,9.1 5.1,9.1 5.2,9.1 Z M4.2,6.7 C4,6.7 3.9,6.9 3.9,7 C3.9,7.2 4.1,7.3 4.2,7.3 C4.4,7.3 4.5,7.1 4.5,7 C4.5,6.9 4.4,6.7 4.2,6.7 L4.2,6.7 Z" id="Shape" fill-rule="nonzero"></path>
                        <path d="M4.2,6.8 C4.2,6.8 4.3,6.8 4.2,6.8 C4.3,6.8 4.3,6.9 4.2,6.8 C4.3,7 4.3,7 4.4,7 C4.4,7 4.5,7 4.5,6.9 C4.5,6.9 4.5,7 4.5,7 C4.5,7.1 4.4,7.3 4.2,7.3 C4,7.3 4,7.2 4,7 C4,6.9 4.1,6.8 4.2,6.8" id="Path" fill-rule="nonzero"></path>
                    </g>
                </g>
            </g>
        </g>
    </g>
</svg>
